!!!!SEGMENT: pl-stab--10a--001-008_rodowski-aleksander--litanie-lauretane-de-b-v-m-salus-infirmorum.krn
!!!cenid: 18xx:3438
!!!COM: Rodowski, Aleksander
!!!COM-rismID:
!!!CDT: <1790->1810
!!!CNT: Polish
!!!OPR: Litanie Lauretane de B.V.M
!!!OTL: Salus infirmorum
!!!OMV: 008
!!!PDT:
!!!AGN:
!!!SMS-siglum: PL-STAb
!!!SMS-shelfmark: 10a
!!!SMS-shelfwork: 001-008 M
!!!SMS-variant:
!!!SMS-altvar:
!!!NIFC-rismSourceID: 301050674
!!!NIFC-islandoraID: pl-stab:2273
!!!URL-pdf-islandora: https://repozytorium.nifc.pl/islandora/object/pl-stab%3A2273/datastream/PDF/view
!!!URL-scan: https://polish.musicsources.pl/pl/lokalizacje/galeria/rekopisy/4397 @EN{Scan on Polish Music Herritage in Open Access Website} @PL{Skany w portalu Dziedzictwo Muzyki Polskiej w otwartym dostępie}
!!!ONB-nifc: UWAGA: części Litanii: 1. Kyrie, 2. Pater de caelis, 3. Sancta Maria, 4. Mater Christi, 5. Mater amabilis, 6. Virgo prudentissima, 7. Rosa mistica, 8. Salus infirmorum, 9. Regina angelorum, 10. Agnus Dei
!!!AIN: 1 bass 2 cor 1 organ 1 soprn 1 tenor 2 violn
!!!key: d
**kern	**fba	**kern	**kern	**kern	**text	**kern	**text	**kern	**text	**kern	**kern
*part8	*part8	*part7	*part6	*part5	*part5	*part4	*part4	*part3	*part3	*part2	*part1
*staff8	*	*staff7	*staff6	*staff5	*staff5	*staff4	*staff4	*staff3	*staff3	*staff2	*staff1
*IGcont	*	*	*	*IGcoro	*	*IGcoro	*	*IGcoro	*	*	*
*ICklav	*	*ICstr	*ICstr	*ICvox	*	*ICvox	*	*ICvox	*	*ICbrass	*ICbrass
*Iorgan	*	*Ivioln	*Ivioln	*Ibass	*	*Itenor	*	*Isoprn	*	*Icor	*Icor
*I"Organo	*	*I"Violino Secundo	*I"Violino Primo	*I"Baſso	*	*I"Tenore	*	*I"Canto	*	*I"Cornu Secundo in G.	*I"Cornu Primo in G.
*I'org	*	*I'vl 2	*I'vl 1	*I'B	*	*I'T	*	*I'S	*	*I'cor 1 in G	*I'cor 2 in G
*clefF4	*	*clefG2	*clefG2	*clefF4	*	*clefC4	*	*clefC1	*	*clefG2	*clefG2
*	*	*	*	*	*	*	*	*	*	*ITrd3c5	*ITrd3c5
*k[b-]	*	*k[b-]	*k[b-]	*k[b-]	*	*k[b-]	*	*k[b-]	*	*k[b-]	*k[b-]
*d:	*	*d:	*d:	*d:	*	*d:	*	*d:	*	*d:	*d:
*M2/4	*	*M2/4	*M2/4	*M2/4	*	*M2/4	*	*M2/4	*	*M2/4	*M2/4
*2\right	*	*2\right	*2\right	*2\right	*	*2\right	*	*2\right	*	*2\right	*2\right
=1	=1	=1	=1	=1	=1	=1	=1	=1	=1	=1	=1
!LO:TX:a:t=Largo:rj	!	!LO:TX:a:t=Largo:rj	!LO:TX:a:t=Largo:rj	!LO:TX:a:t=adagio	!	!LO:TX:a:t=adagio	!	!LO:TX:a:t=adagio	!	!LO:TX:a:t=Salus Tacet #	!LO:TX:a:t=Salus Tacet #
4D\	.	1r	1r	4D\	Sa-	4F/	Sa-	4a\	Sa-	2ryy	2ryy
4E\	x 6\ 3	.	.	4E\	-lus	4G/	-lus	4cc#X\	-lus	.	.
=2	=2	=2	=2	=2	=2	=2	=2	=2	=2	=2	=2
*	*	*	*	*	*ij	*	*ij	*	*ij	*	*
4F\	x 6 3	.	.	8F\	Sa-	8A/	Sa-	8dd\	Sa-	2ryy	2ryy
.	x x 8	.	.	8F\	lus	8A/	lus	8ff\	lus	.	.
*	*	*	*	*	*Xij	*	*Xij	*	*Xij	*	*
8G\L	x x 6	.	.	8G\	In-	8G/	In-	8ee\	In-	.	.
8G#X\J	x x 5	.	.	8G#X\	-fir-	8F/	-fir-	8dd\	-fir-	.	.
=3	=3	=3	=3	=3	=3	=3	=3	=3	=3	=3	=3
!LO:TX:t=P:problem=mixed beam	!	!	!	!	!	!	!	!	!	!	!
8A\L	x x 4	8r	8r	8A\	-mo-	8F/	-mo-	8dd\	-mo-	2ryy	2ryy
8AA/J	x x #	16r	16r	8AA/	-rum	8E/	-rum	8cc#X\	-rum	.	.
.	.	16f/	16a/	.	.	.	.	.	.	.	.
4r	.	16e/LL	16g/LL	4r	.	4r	.	4r	.	.	.
.	.	16d/	16f/	.	.	.	.	.	.	.	.
.	.	16c#X/	16e/	.	.	.	.	.	.	.	.
.	.	16d/JJ	16f/JJ	.	.	.	.	.	.	.	.
=4	=4	=4	=4	=4	=4	=4	=4	=4	=4	=4	=4
8A\L	x x 7	8c#X/	8e/	8A\L	Re-	2G/	Re-	2ee\	Re-	2ryy	2ryy
8B-\	.	8r	8r	8B-\	.	.	.	.	.	.	.
8c#X\	.	4r	4r	8c#X\	.	.	.	.	.	.	.
8A\J	.	.	.	8A\J	.	.	.	.	.	.	.
=5	=5	=5	=5	=5	=5	=5	=5	=5	=5	=5	=5
!	!	!	!	!LO:LB:g=original	!	!	!	!	!	!	!
8d\L	x x 3	2r	2r	8d\	-fu-	8F/	-fu-	8dd\	-fu-	2ryy	2ryy
8B-\	.	.	.	16B-\	-gi-	16F/	-gi-	16dd\	-gi-	.	.
.	.	.	.	16B-\	-um	16F/	-um	16dd\	-um	.	.
8A\	.	.	.	8A\	pec-	8F/	pec-	8dd\	pec-	.	.
8G#X\J	x 7 5	.	.	8G#X\	ca-	8F/	ca-	8dd\	ca-	.	.
=6	=6	=6	=6	=6	=6	=6	=6	=6	=6	=6	=6
!LO:TX:t=P:problem=mixed beam	!	!	!	!	!	!	!	!	!	!	!
8A\L	x 6 4	8r	8r	8A\	-to-	8F/	-to-	8dd\	-to-	2ryy	2ryy
8AA/	x 5 #	16r	16r	8AA/	-rum	8E/	-rum	8cc#X\	-rum	.	.
.	.	16d/	16f/	.	.	.	.	.	.	.	.
8AA/J	.	8c#X/	8e/	4r	.	4r	.	4r	.	.	.
8r	.	8r	8r	.	.	.	.	.	.	.	.
=7	=7	=7	=7	=7	=7	=7	=7	=7	=7	=7	=7
*tremolo	*	*	*	*	*	*	*	*	*	*	*
!	!	!	!	!	!	!LO:LB:g=original	!	!	!	!	!
8A\L	x 6\ 3	16r	16r	0r	.	0r	.	4.dd\	Co-	2ryy	2ryy
.	.	16cn/LL	16f#X/LL	.	.	.	.	.	.	.	.
8A\	.	16c/	16f#/	.	.	.	.	.	.	.	.
.	.	16c/JJ	16f#/JJ	.	.	.	.	.	.	.	.
8A\	.	16c/LL	16r	.	.	.	.	.	.	.	.
.	.	16c/	16f#/LL	.	.	.	.	.	.	.	.
!	!	!	!	!	!	!	!	!LO:SIC:v:s=8f#/	!	!	!
8A\J	.	16c/	16f#/	.	.	.	.	8f/	-so-	.	.
.	.	16c/JJ	16f#/JJ	.	.	.	.	.	.	.	.
=8	=8	=8	=8	=8	=8	=8	=8	=8	=8	=8	=8
!	!	!	!	!	!	!	!	!LO:LB:g=original	!	!	!
8B-\L	x 6 3	16r	16r	.	.	.	.	16a\LL	-la-	2ryy	2ryy
.	.	16d/LL	16g/LL	.	.	.	.	16g\JJ	.	.	.
8B-\	.	16d/	16g/	.	.	.	.	8a\	-trix	.	.
.	.	16d/JJ	16g/JJ	.	.	.	.	.	.	.	.
!	!	!LO:LB:g=original	!	!	!	!	!	!	!	!	!
8B-\	.	16d/LL	16r	.	.	.	.	4r	.	.	.
.	.	16d/	16g/LL	.	.	.	.	.	.	.	.
8B-\J	.	16d/	16g/	.	.	.	.	.	.	.	.
.	.	16d/JJ	16g/JJ	.	.	.	.	.	.	.	.
=9	=9	=9	=9	=9	=9	=9	=9	=9	=9	=9	=9
8G\L	x 6 3	16r	16r	.	.	.	.	4.cc\	aff-	2ryy	2ryy
.	.	16B-/LL	16e/LL	.	.	.	.	.	.	.	.
8G\	.	16B-/	16e/	.	.	.	.	.	.	.	.
.	.	16B-/JJ	16e/JJ	.	.	.	.	.	.	.	.
*	*	*tremolo	*	*	*	*	*	*	*	*	*
!	!	!	!LO:LB:g=original	!	!	!	!	!	!	!	!
8G\	.	16B-/LL	16r	.	.	.	.	.	.	.	.
.	.	16B-/	16e/LL	.	.	.	.	.	.	.	.
8G\J	.	16B-/	16e/	.	.	.	.	8e/	-li-	.	.
.	.	16B-/JJ	16e/JJ	.	.	.	.	.	.	.	.
*	*	*Xtremolo	*	*	*	*	*	*	*	*	*
=10	=10	=10	=10	=10	=10	=10	=10	=10	=10	=10	=10
8A\L	x 6 3	16r	16r	.	.	.	.	16g/LL	-cto-	2ryy	2ryy
.	.	16c/LL	16f/LL	.	.	.	.	16f/JJ	-rum	.	.
8A\	.	16c/	16f/	.	.	.	.	8f/	.	.	.
.	.	16c/JJ	16f/JJ	.	.	.	.	.	.	.	.
*	*	*tremolo	*	*	*	*	*	*	*	*	*
8A\	.	16c/LL	16r	.	.	.	.	4r	.	.	.
.	.	16c/	16f/LL	.	.	.	.	.	.	.	.
8A\J	.	16c/	16f/	.	.	.	.	.	.	.	.
.	.	16c/JJ	16f/JJ	.	.	.	.	.	.	.	.
*Xtremolo	*	*Xtremolo	*	*	*	*	*	*	*	*	*
=11	=11	=11	=11	=11	=11	=11	=11	=11	=11	=11	=11
!LO:LB:g=original	!	!	!	!	!	!	!	!	!	!	!
4C/	x 5 3	16e/LL	16g/LL	8E\L	O-	8G/L	O-	2cc\	O-	2ryy	2ryy
.	.	16c/	16cc/	.	.	.	.	.	.	.	.
.	x 6 4	16f/	16a/	8F\	.	8A/	.	.	.	.	.
.	.	16c/JJ	16cc/JJ	.	.	.	.	.	.	.	.
4CC/	x 7 5	16g/LL	16b-/LL	8G\	.	8B-/	.	.	.	.	.
.	.	16c/	16cc/	.	.	.	.	.	.	.	.
.	x 5 3	16e/	16g/	8E\J	.	8G/J	.	.	.	.	.
.	.	16c/JJ	16cc/JJ	.	.	.	.	.	.	.	.
=12	=12	=12	=12	=12	=12	=12	=12	=12	=12	=12	=12
4F\	x x 3	8f/L	8a\L	4F\	-ra	4A\	-ra	4cc\	-ra	2ryy	2ryy
.	.	8a/	8cc\	.	.	.	.	.	.	.	.
8F\L	x 5 3	8a/	8cc\	4r	.	4r	.	4r	.	.	.
8E\J	x 6\ 3	8g/J	8cc#X\J	.	.	.	.	.	.	.	.
=13	=13	=13	=13	=13	=13	=13	=13	=13	=13	=13	=13
*	*	*	*	*	*ij	*	*ij	*	*ij	*	*
4D\	x 5 #	16f#X/LL	16dd\LL	8F#X\L	O-	8A\L	O-	2dd\	O-	2ryy	2ryy
.	.	16d/	16a\	.	.	.	.	.	.	.	.
.	x 6 4	16g/	16b-\	8G\	.	8B-\	.	.	.	.	.
.	.	16d/JJ	16dd\JJ	.	.	.	.	.	.	.	.
4DD/	x 7 5	16a/LL	16cc\LL	8A\	.	8c\	.	.	.	.	.
.	.	16d/	16dd\	.	.	.	.	.	.	.	.
.	x 5 #	16f#X/	16a\	8F#\J	.	8A\J	.	.	.	.	.
.	.	16d/JJ	16dd\JJ	.	.	.	.	.	.	.	.
=14	=14	=14	=14	=14	=14	=14	=14	=14	=14	=14	=14
4GG/	x x 3	8g/L	8b-\L	4G\	-ra	4B-\	-ra	4dd\	-ra	2ryy	2ryy
.	.	8b-/	8dd\	.	.	.	.	.	.	.	.
4r	.	8b-/	8dd\	4r	.	4r	.	4r	.	.	.
.	.	8a/J	8cc\J	.	.	.	.	.	.	.	.
=15	=15	=15	=15	=15	=15	=15	=15	=15	=15	=15	=15
4C/	x 5 3	4c/ 4g	4b-\ 4ee	8G\L	O-	8B-\L	O-	4ee\	O-	2ryy	2ryy
.	x 6 4	.	.	8A\J	.	8c\J	.	.	.	.	.
4CC/	x 7 5	4r	16r	8B-\	-ra	8d\	-ra	8gg\	-ra	.	.
*	*	*	*	*	*Xij	*	*Xij	*	*Xij	*	*
.	.	.	16bb-\LL	.	.	.	.	.	.	.	.
.	x 5 3	.	16gg\	8G\	pro	8B-\	pro-	8ee\	pro-	.	.
.	.	.	16ee\JJ	.	.	.	.	.	.	.	.
=16	=16	=16	=16	=16	=16	=16	=16	=16	=16	=16	=16
!	!	!LO:LB:g=original	!	!LO:LB:g=original	!	!	!	!	!	!	!
8FF/L	x x 3	8a/L	16ff\LL	8F\L	no-	8A\L	-no-	8ff\L	-no-	2ryy	2ryy
.	.	.	16ccc\	.	.	.	.	.	.	.	.
8GG/	x 6 3	8b-/J	16ee\	8G\J	.	8B-\J	.	8ee\J	.	.	.
.	.	.	16gg\JJ	.	.	.	.	.	.	.	.
8AA/	x 6 3	8cc\L	16ff\LL	8A\	-bis	8c\	-bis	8ff\	-bis	.	.
.	.	.	16ccc\	.	.	.	.	.	.	.	.
*	*	*	*	*	*ij	*	*ij	*	*	*	*
8BB-/J	x 6 3	16dd\L	16dd\	8B-\	pro-	8d\	pro-	8gg\	pro	.	.
.	.	16gg\JJ	16ddd\JJ	.	.	.	.	.	.	.	.
=17	=17	=17	=17	=17	=17	=17	=17	=17	=17	=17	=17
*	*	*tremolo	*	*	*	*	*	*	*	*	*
!	!	!	!	!	!	!	!	!LO:LB:g=original	!	!	!
4C/	x 6 4	16ff\LL	16aa\LL	4c\	-no-	4A/	-no-	4ff\	no-	2ryy	2ryy
.	.	16ff\	16aa\	.	.	.	.	.	.	.	.
.	.	16ff\	16aa\	.	.	.	.	.	.	.	.
.	.	16ff\JJ	16aa\JJ	.	.	.	.	.	.	.	.
*	*	*	*tremolo	*	*	*	*	*	*	*	*
4CC/	x 7 3	16ee\LL	16gg\LL	4C/	.	4G/	.	4ee\	.	.	.
.	.	16ee\	16gg\	.	.	.	.	.	.	.	.
.	.	16ee\	16gg\	.	.	.	.	.	.	.	.
.	.	16ee\JJ	16gg\JJ	.	.	.	.	.	.	.	.
*	*	*Xtremolo	*	*	*	*	*	*	*	*	*
=18	=18	=18	=18	=18	=18	=18	=18	=18	=18	=18	=18
!	!	!	!LO:LB:g=original	!	!	!LO:LB:g=original	!	!	!	!	!
8FF/L	x x 3	8ff\L	16ff\LL	8F\	-bis	8A\	-bis	8ff\	-bis	2ryy	2ryy
*	*	*	*	*	*Xij	*	*Xij	*	*	*	*
.	.	.	16ccc\	.	.	.	.	.	.	.	.
8GG/	x 6 3	8b-\J	16ee\	8G\	o-	8B-\	o-	8ee\	o-	.	.
.	.	.	16gg\JJ	.	.	.	.	.	.	.	.
8AA/	x 6 3	8cc\L	16ff\LL	8A\	-ra	8c\	-ra	8ff\	-ra	.	.
.	.	.	16ccc\	.	.	.	.	.	.	.	.
8BB-/J	x 6 3	16dd\L	16dd\	8B-\	pro	8d\	pro-	8gg\	pro-	.	.
.	.	16gg\JJ	16ddd\JJ	.	.	.	.	.	.	.	.
=19	=19	=19	=19	=19	=19	=19	=19	=19	=19	=19	=19
*	*	*tremolo	*	*	*	*	*	*	*	*	*
4C/	x 6 4	16ff\LL	16aa\LL	4c\	no-	4A/	-no-	4ff\	-no-	2ryy	2ryy
.	.	16ff\	16aa\	.	.	.	.	.	.	.	.
.	.	16ff\	16aa\	.	.	.	.	.	.	.	.
.	.	16ff\JJ	16aa\JJ	.	.	.	.	.	.	.	.
4CC/	x 7 3	16ee\LL	16gg\LL	4C/	.	4G/	.	4eet\	.	.	.
.	.	16ee\	16gg\	.	.	.	.	.	.	.	.
.	.	16ee\	16gg\	.	.	.	.	.	.	.	.
.	.	16ee\JJ	16gg\JJ	.	.	.	.	.	.	.	.
*	*	*	*Xtremolo	*	*	*	*	*	*	*	*
*	*	*Xtremolo	*	*	*	*	*	*	*	*	*
=20	=20	=20	=20	=20	=20	=20	=20	=20	=20	=20	=20
!	!	!LO:TX:t=P:problem=mixed beam	!	!	!	!	!	!	!	!	!
8FF/	x x 3	16ff\LL	16ff\LL	8F\	-bis	8F/	-bis	8ff\	-bis	2ryy	2ryy
.	.	16a/	16cc\	.	.	.	.	.	.	.	.
8r	.	16a/	16cc\	8r	.	8r	.	8r	.	.	.
.	.	16f/JJ	16a\JJ	.	.	.	.	.	.	.	.
8BB-/	.	16r	16r	4r	.	4r	.	4r	.	.	.
.	.	16dd\LL	16ff\LL	.	.	.	.	.	.	.	.
8r	.	16dd\	16ff\	.	.	.	.	.	.	.	.
.	.	16b-\JJ	16dd\JJ	.	.	.	.	.	.	.	.
=21	=21	=21	=21	=21	=21	=21	=21	=21	=21	=21	=21
8C/	.	16r	16r	0r	.	0r	.	0r	.	2ryy	2ryy
.	.	16a/LL	16cc\LL	.	.	.	.	.	.	.	.
8r	.	16a/	16cc\	.	.	.	.	.	.	.	.
.	.	16f/JJ	16a\JJ	.	.	.	.	.	.	.	.
8CC/	.	16r	16r	.	.	.	.	.	.	.	.
.	.	16g/LL	16b-\LL	.	.	.	.	.	.	.	.
8r	.	16g/	16b-\	.	.	.	.	.	.	.	.
.	.	16e/JJ	16g\JJ	.	.	.	.	.	.	.	.
=22	=22	=22	=22	=22	=22	=22	=22	=22	=22	=22	=22
!LO:LB:g=original	!	!	!	!	!	!	!	!	!	!	!
8FF/	.	16r	16r	.	.	.	.	.	.	2ryy	2ryy
.	.	16a/LL	16cc\LL	.	.	.	.	.	.	.	.
8r	.	16a/	16cc\	.	.	.	.	.	.	.	.
.	.	16f/JJ	16a\JJ	.	.	.	.	.	.	.	.
8BB-/	.	16r	16r	.	.	.	.	.	.	.	.
.	.	16dd\LL	16ff\LL	.	.	.	.	.	.	.	.
8r	.	16dd\	16ff\	.	.	.	.	.	.	.	.
.	.	16b-\JJ	16dd\JJ	.	.	.	.	.	.	.	.
=23	=23	=23	=23	=23	=23	=23	=23	=23	=23	=23	=23
!	!	!LO:LB:g=original	!	!	!	!	!	!	!	!	!
8C/	.	16r	16r	.	.	.	.	.	.	2ryy	2ryy
.	.	16a/LL	16cc\LL	.	.	.	.	.	.	.	.
8r	.	16a/	16cc\	.	.	.	.	.	.	.	.
.	.	16f/JJ	16a\JJ	.	.	.	.	.	.	.	.
8CC/	.	16r	16r	.	.	.	.	.	.	.	.
.	.	16g/LL	16b-\LL	.	.	.	.	.	.	.	.
8r	.	16g/	16b-\	.	.	.	.	.	.	.	.
.	.	16e/JJ	16g\JJ	.	.	.	.	.	.	.	.
=24	=24	=24	=24	=24	=24	=24	=24	=24	=24	=24	=24
!LO:TX:t=P:problem=mixed beam	!	!	!	!	!	!	!	!	!	!	!
16FF/LL	.	8A/L 8f	8A/L 8f	.	.	.	.	.	.	2ryy	2ryy
16F\	.	.	.	.	.	.	.	.	.	.	.
16C\	.	16.A/L 16.f	16.A/L 16.f	.	.	.	.	.	.	.	.
16AA\JJ	.	.	.	.	.	.	.	.	.	.	.
.	.	32A/JJk 32f	32A/JJk 32f	.	.	.	.	.	.	.	.
8FF/	.	8A/ 8f	8A/ 8f	.	.	.	.	.	.	.	.
8r	.	8r	8r	.	.	.	.	.	.	.	.
=25	=25	=25	=25	=25	=25	=25	=25	=25	=25	=25	=25
!LO:TX:t=P:problem=mixed beam	!	!	!LO:LB:g=original	!	!	!	!	!	!	!	!
8AA/L	x 5 #	16r	16r	4A\	au-	4E/	au-	4cc#X\	au-	2ryy	2ryy
.	.	16g/LL	16ee\LL	.	.	.	.	.	.	.	.
8A\	.	16g/	16ee\	.	.	.	.	.	.	.	.
.	.	16e/JJ	16cc#X\JJ	.	.	.	.	.	.	.	.
8A\	x 6 4	16r	16r	8A\	-xi-	8F/	-xi-	8dd\	-xi-	.	.
.	.	16f/LL	16dd\LL	.	.	.	.	.	.	.	.
8A\J	.	16f/	16dd\	16A\	-li-	16F/	-li-	16dd\	-li-	.	.
.	.	16f/JJ	16a\JJ	16A\	-um	16F/	-um	16dd\	-um	.	.
=26	=26	=26	=26	=26	=26	=26	=26	=26	=26	=26	=26
!LO:TX:t=P:problem=mixed beam	!	!	!	!LO:LB:g=original	!	!	!	!	!	!	!
8AA/L	x 7 5	16r	16r	8A\	Chri-	8G/	Chri-	8ee\	Chri-	2ryy	2ryy
.	.	16e/LL	16g/LL	.	.	.	.	.	.	.	.
8A\	.	16e/	16g/	16A\	-sti-	16G/	-sti-	16ee\	-sti-	.	.
.	.	16c#X/JJ	16e/JJ	16A\	-a-	16G/	-a-	16ee\	-a-	.	.
8A\	x 6 4	16r	16r	4A\	-no-	4F/	-no-	4dd\	-no-	.	.
.	.	16d/LL	16f/LL	.	.	.	.	.	.	.	.
8A\J	.	16f/	16a/	.	.	.	.	.	.	.	.
.	.	16d/JJ	16f/JJ	.	.	.	.	.	.	.	.
!	!	!	!	!	!	!	!	!LO:TX:a:t=Verte\nCito	!	!	!
=27	=27	=27	=27	=27	=27	=27	=27	=27	=27	=27	=27
!LO:TX:t=P:problem=mixed beam	!	!	!	!	!	!	!	!LO:PB:g=original	!	!	!
8AA/L	x 5 #	16r	16r	8A\	-rum	8E/	-rum	8cc#X\	-rum	2ryy	2ryy
.	.	16g/LL	16ee\LL	.	.	.	.	.	.	.	.
8A\	.	16g/	16ee\	8A\	o-	8E/	o-	8cc#\	o-	.	.
.	.	16e/JJ	16cc#X\JJ	.	.	.	.	.	.	.	.
8A\	x 6 4	16r	16r	8A\	-ra	8F/	-ra	8dd\	-ra	.	.
.	.	16f/LL	16dd\LL	.	.	.	.	.	.	.	.
8A\J	.	16f/	16dd\	8A\	pro-	8F/	pro	8dd\	pro-	.	.
.	.	16f/JJ	16a\JJ	.	.	.	.	.	.	.	.
=28	=28	=28	=28	=28	=28	=28	=28	=28	=28	=28	=28
!LO:TX:t=P:problem=mixed beam	!	!	!	!	!	!	!LO:LB:g=original	!	!	!	!
8AA/L	x 7 5	16r	16r	2A\	-no-	4G/	no-	4ee\	-no-	2ryy	2ryy
.	.	16e/LL	16g/LL	.	.	.	.	.	.	.	.
8A\	.	16e/	16g/	.	.	.	.	.	.	.	.
.	.	16c#X/JJ	16e/JJ	.	.	.	.	.	.	.	.
8A\	x 6 4	16r	16r	.	.	4F/	.	4dd\	.	.	.
.	.	16d/LL	16f/LL	.	.	.	.	.	.	.	.
8A\J	.	16f/	16a/	.	.	.	.	.	.	.	.
.	.	16d/JJ	16f/JJ	.	.	.	.	.	.	.	.
=29	=29	=29	=29	=29	=29	=29	=29	=29	=29	=29	=29
!	!	!LO:LB:g=original	!	!	!	!	!	!	!	!	!
8A\	x x #	16r	16r	8A\	-bis	8E/	-bis	8cc#X\	-bis	2ryy	2ryy
.	.	16c#X/LL	16a/LL	.	.	.	.	.	.	.	.
8r	.	16c#/	16a/	8r	.	8r	.	8r	.	.	.
.	.	16c#/JJ	16f/JJ	.	.	.	.	.	.	.	.
4G#X\	7 5 3	4d/	4f/	4G#X\	o-	4F/	o-	4dd\	o-	.	.
.	.	.	.	.	.	.	.	.	.	.	.
.	.	.	.	.	.	.	.	.	.	.	.
.	.	.	.	.	.	.	.	.	.	.	.
=30	=30	=30	=30	=30	=30	=30	=30	=30	=30	=30	=30
8A\	x x #	16c#X/LL	16e/LL	8A\	-ra	8E/	-ra	8cc#X\	-ra	2ryy	2ryy
.	.	16c#/	16a/	.	.	.	.	.	.	.	.
!	!	!	!	!	!	!	!	!LO:N:vis=8	!	!	!
16r	.	16c#/	16a/	16r	.	16r	.	16r	.	.	.
16A\	.	16c#/JJ	16a/JJ	16A\	pro-	16E/	.	16cc#\	pro-	.	.
4B-;\	6\ 5 3	4d;/	4g#/;	4B-;\	-no-	4F;/	no-	4dd;\	-no-	.	.
.	.	.	.	.	.	.	.	.	.	.	.
.	.	.	.	.	.	.	.	.	.	.	.
.	.	.	.	.	.	.	.	.	.	.	.
=31	=31	=31	=31	=31	=31	=31	=31	=31	=31	=31	=31
2A\	x x 8	2c#X;/	2a/;<	2A;\	-bis	2E;/	-bis	2cc#X;\	-bis	2ryy	2ryy
.	.	.	.	.	.	.	.	.	.	.	.
.	.	.	.	.	.	.	.	.	.	.	.
.	.	.	.	.	.	.	.	.	.	.	.
.	.	.	.	.	.	.	.	.	.	.	.
==	==	==	==	==	==	==	==	==	==	==	==
*-	*-	*-	*-	*-	*-	*-	*-	*-	*-	*-	*-
!!!system-decoration: [(s1, s2)][(s3,s4,s5)][(s6,s7)]s8
!!!RDF**kern: > = above
!!!RDF**kern: < = below
!!!ENC: Marta Opryszak
!!!END: 2021-11-19
!!!ENC: Krzysztof Stępień
!!!END: 2021-11-24
